;START_OF_HEADER
;HEADER_VERSION:0.1
;FLAVOR:Griffin
;GENERATOR.NAME:Cura_SteamEngine
;GENERATOR.VERSION:5.10.0
;GENERATOR.BUILD_DATE:2025-03-21
;TARGET_MACHINE.NAME:Ultimaker 3 Extended
;EXTRUDER_TRAIN.0.INITIAL_TEMPERATURE:200
;EXTRUDER_TRAIN.0.MATERIAL.VOLUME_USED:543
;EXTRUDER_TRAIN.0.MATERIAL.GUID:506c9f0d-e3aa-4bd4-b2d2-23e2425b1aa9
;EXTRUDER_TRAIN.0.NOZZLE.DIAMETER:0.4
;EXTRUDER_TRAIN.0.NOZZLE.NAME:AA 0.4
;BUILD_PLATE.INITIAL_TEMPERATURE:60
;PRINT.TIME:492
;PRINT.GROUPS:1
;PRINT.SIZE.MIN.X:9
;PRINT.SIZE.MIN.Y:6
;PRINT.SIZE.MIN.Z:0.2
;PRINT.SIZE.MAX.X:128.448
;PRINT.SIZE.MAX.Y:119.483
;PRINT.SIZE.MAX.Z:9.95
;SLICE_UUID:b357ce70-89ec-45bd-8af9-273e46d9a2cc
;END_OF_HEADER
;Generated with Cura_SteamEngine 5.10.0
T0

M82 ;absolute extrusion mode
G92 E0
M190 S60
M104 S200
M109 S200
G0 F15000 X9 Y6 Z2
G280
G1 F1500 E-6.5
;LAYER_COUNT:66
;LAYER:0
M106 S255
M204 S1000
M205 X20 Y20
G1 F600 Z2.2
G0 F15000 X107.385 Y99.729 Z2.2
;TYPE:SKIRT
G1 F600 Z0.2
G1 F1500 E0
G1 F1350 X108.298 Y98.772 E0.01659
G1 X109.492 Y97.787 E0.036
G1 X110.595 Y97.083 E0.05241
G1 X111.971 Y96.409 E0.07162
G1 X112.931 Y96.066 E0.08441
G1 X114.515 Y95.687 E0.10483
G1 X115.712 Y95.542 E0.11995
G1 X116.401 Y95.517 E0.1286
G1 X117.998 Y95.622 E0.14867
G1 X119.949 Y96.034 E0.17367
G1 X121.234 Y96.494 E0.19079
G1 X122.064 Y96.891 E0.20233
G1 X123.669 Y97.896 E0.22607
G1 X124.303 Y98.402 E0.23625
G1 X125.459 Y99.547 E0.25665
G1 X126.219 Y100.499 E0.27193
G1 X127.03 Y101.795 E0.2911
G1 X127.621 Y103.06 E0.30861
G1 X128.082 Y104.445 E0.32691
G1 X128.353 Y105.722 E0.34328
G1 X128.448 Y106.569 E0.35397
G1 X128.437 Y108.475 E0.37787
G1 X128.269 Y109.716 E0.39358
G1 X127.873 Y111.252 E0.41347
G1 X127.439 Y112.387 E0.42871
G1 X126.935 Y113.379 E0.44266
G1 X126.037 Y114.745 E0.46316
G1 X125.188 Y115.747 E0.47963
G1 X124.399 Y116.504 E0.49334
G1 X122.828 Y117.672 E0.51789
G1 X121.975 Y118.155 E0.53019
G1 X120.877 Y118.648 E0.54528
G1 X119.106 Y119.194 E0.56852
G1 X118.178 Y119.363 E0.58035
G1 X116.332 Y119.483 E0.60355
G1 X115.524 Y119.445 E0.61369
G1 X113.785 Y119.168 E0.63577
G1 X112.675 Y118.852 E0.65025
G1 X111.566 Y118.414 E0.6652
G1 X109.986 Y117.552 E0.68777
G1 X109.033 Y116.862 E0.70252
G1 X107.887 Y115.824 E0.72191
G1 X107.107 Y114.941 E0.73669
G1 X106.455 Y114.027 E0.75077
G1 X105.601 Y112.474 E0.77299
G1 X105.21 Y111.504 E0.78611
G1 X104.813 Y110.119 E0.80418
G1 X104.564 Y108.555 E0.82404
G1 X104.519 Y107.649 E0.83541
G1 X104.651 Y105.71 E0.85979
G1 X104.815 Y104.839 E0.8709
G1 X105.308 Y103.22 E0.89212
G1 X105.681 Y102.352 E0.90397
G1 X106.721 Y100.581 E0.92973
G1 X107.385 Y99.729 E0.94327
G0 F15000 X107.701 Y99.975
G1 F1350 X108.587 Y99.049 E0.95934
G1 X109.746 Y98.096 E0.97816
G1 X110.771 Y97.442 E0.99341
G1 X112.106 Y96.786 E1.01206
G1 X113.066 Y96.443 E1.02485
G1 X114.563 Y96.084 E1.04415
G1 X115.727 Y95.942 E1.05886
G1 X116.416 Y95.917 E1.0675
G1 X117.971 Y96.021 E1.08705
G1 X119.814 Y96.411 E1.11067
G1 X121.099 Y96.871 E1.12779
G1 X121.852 Y97.23 E1.13825
G1 X123.419 Y98.209 E1.16142
G1 X124.053 Y98.715 E1.17159
G1 X125.146 Y99.797 E1.19088
G1 X125.906 Y100.749 E1.20615
G1 X126.691 Y102.007 E1.22475
G1 X127.241 Y103.186 E1.24106
G1 X127.702 Y104.571 E1.25937
G1 X127.955 Y105.767 E1.2747
G1 X128.05 Y106.614 E1.28539
G1 X128.04 Y108.422 E1.30806
G1 X127.881 Y109.617 E1.32318
G1 X127.499 Y111.109 E1.34249
G1 X127.065 Y112.244 E1.35773
G1 X126.6 Y113.16 E1.37061
G1 X125.731 Y114.487 E1.3905
G1 X124.911 Y115.458 E1.40644
G1 X124.122 Y116.215 E1.42015
G1 X122.63 Y117.324 E1.44347
G1 X121.811 Y117.79 E1.45528
G1 X120.713 Y118.283 E1.47038
G1 X119.034 Y118.8 E1.49241
G1 X118.106 Y118.969 E1.50424
G1 X116.351 Y119.083 E1.52629
G1 X115.543 Y119.045 E1.53643
G1 X113.895 Y118.783 E1.55736
G1 X112.785 Y118.467 E1.57183
G1 X111.714 Y118.042 E1.58628
G1 X110.22 Y117.228 E1.60762
G1 X109.301 Y116.565 E1.62183
G1 X108.187 Y115.559 E1.64065
G1 X107.407 Y114.676 E1.65543
G1 X106.806 Y113.834 E1.6684
G1 X105.952 Y112.281 E1.69063
G1 X105.595 Y111.394 E1.70262
G1 X105.198 Y110.009 E1.72068
G1 X104.964 Y108.535 E1.7394
G1 X104.919 Y107.629 E1.75078
G1 X105.044 Y105.783 E1.77398
G1 X105.198 Y104.955 E1.78454
G1 X105.676 Y103.378 E1.8052
G1 X106.049 Y102.51 E1.81705
G1 X107.037 Y100.827 E1.84153
G1 X107.701 Y99.975 E1.85507
G0 F15000 X107.99 Y100.252
G1 F1350 X108.876 Y99.326 E1.87114
G1 X109.962 Y98.433 E1.88877
G1 X110.948 Y97.801 E1.90346
G1 X112.241 Y97.163 E1.92154
G1 X113.201 Y96.82 E1.93433
G1 X114.612 Y96.481 E1.95252
G1 X115.742 Y96.342 E1.9668
G1 X116.431 Y96.317 E1.97545
G1 X117.889 Y96.413 E1.99377
G1 X119.679 Y96.788 E2.01671
G1 X120.964 Y97.248 E2.03382
G1 X121.679 Y97.591 E2.04377
G1 X123.169 Y98.522 E2.0658
G1 X123.803 Y99.028 E2.07597
G1 X124.833 Y100.047 E2.09414
G1 X125.593 Y100.999 E2.10942
G1 X126.351 Y102.218 E2.12742
G1 X126.862 Y103.313 E2.14257
G1 X127.311 Y104.654 E2.16031
G1 X127.557 Y105.812 E2.17515
G1 X127.652 Y106.659 E2.18584
G1 X127.64 Y108.419 E2.20791
G1 X127.493 Y109.518 E2.22182
G1 X127.125 Y110.966 E2.24055
G1 X126.691 Y112.101 E2.25579
G1 X126.265 Y112.941 E2.2676
G1 X125.396 Y114.268 E2.28749
G1 X124.634 Y115.169 E2.30229
G1 X123.845 Y115.926 E2.316
G1 X122.432 Y116.976 E2.33808
G1 X121.613 Y117.442 E2.3499
G1 X120.55 Y117.918 E2.3645
G1 X118.962 Y118.406 E2.38534
G1 X118.034 Y118.575 E2.39716
G1 X116.37 Y118.683 E2.41808
G1 X115.562 Y118.645 E2.42822
G1 X114.005 Y118.398 E2.44799
G1 X112.895 Y118.082 E2.46246
G1 X111.862 Y117.67 E2.47641
G1 X110.453 Y116.903 E2.49653
G1 X109.569 Y116.268 E2.51017
G1 X108.487 Y115.294 E2.52843
G1 X107.707 Y114.411 E2.54321
G1 X107.156 Y113.641 E2.55508
G1 X106.323 Y112.131 E2.57671
G1 X105.98 Y111.284 E2.58817
G1 X105.583 Y109.899 E2.60623
G1 X105.364 Y108.515 E2.62381
G1 X105.319 Y107.609 E2.63518
G1 X105.438 Y105.855 E2.65723
G1 X105.581 Y105.071 E2.66722
G1 X106.044 Y103.536 E2.68733
G1 X106.417 Y102.668 E2.69917
G1 X107.353 Y101.072 E2.72238
G1 X107.99 Y100.252 E2.7354
G0 F15000 X108.279 Y100.529
G1 F1350 X109.165 Y99.603 E2.75147
G1 X110.179 Y98.769 E2.76793
G1 X111.126 Y98.159 E2.78206
G1 X112.376 Y97.539 E2.79956
G1 X113.295 Y97.209 E2.8118
G1 X114.661 Y96.878 E2.82943
G1 X115.757 Y96.742 E2.84328
G1 X116.446 Y96.717 E2.85192
G1 X117.862 Y96.812 E2.86972
G1 X119.545 Y97.165 E2.89129
G1 X120.791 Y97.609 E2.90787
G1 X121.506 Y97.952 E2.91782
G1 X122.919 Y98.835 E2.93871
G1 X123.553 Y99.341 E2.94889
G1 X124.52 Y100.297 E2.96594
G1 X125.28 Y101.249 E2.98121
G1 X125.989 Y102.388 E2.99804
G1 X126.483 Y103.441 E3.01263
G1 X126.92 Y104.738 E3.02979
G1 X127.159 Y105.857 E3.04414
G1 X127.254 Y106.704 E3.05483
G1 X127.24 Y108.416 E3.0763
G1 X127.105 Y109.42 E3.089
G1 X126.751 Y110.823 E3.10715
G1 X126.317 Y111.958 E3.12238
G1 X125.93 Y112.722 E3.13312
G1 X125.061 Y114.049 E3.15302
G1 X124.357 Y114.88 E3.16667
G1 X123.568 Y115.637 E3.18039
G1 X122.234 Y116.628 E3.20123
G1 X121.415 Y117.094 E3.21304
G1 X120.387 Y117.553 E3.22716
G1 X118.89 Y118.012 E3.2468
G1 X117.962 Y118.181 E3.25862
G1 X116.389 Y118.283 E3.27839
G1 X115.581 Y118.245 E3.28854
G1 X114.114 Y118.013 E3.30716
G1 X113.043 Y117.71 E3.32112
G1 X112.01 Y117.298 E3.33507
G1 X110.686 Y116.578 E3.35397
G1 X109.836 Y115.97 E3.36707
G1 X108.787 Y115.029 E3.38474
G1 X108.007 Y114.146 E3.39952
G1 X107.482 Y113.409 E3.41086
G1 X106.693 Y111.98 E3.43134
G1 X106.365 Y111.174 E3.44225
G1 X105.968 Y109.789 E3.46032
G1 X105.764 Y108.495 E3.47674
G1 X105.719 Y107.589 E3.48812
G1 X105.832 Y105.927 E3.50901
G1 X105.975 Y105.143 E3.519
G1 X106.412 Y103.694 E3.53798
G1 X106.785 Y102.826 E3.54983
G1 X107.669 Y101.317 E3.57176
G1 X108.279 Y100.529 E3.58426
G0 F15000 X108.568 Y100.806
G1 F1350 X109.454 Y99.88 E3.60033
G1 X110.396 Y99.105 E3.61563
G1 X111.305 Y98.517 E3.6292
G1 X112.512 Y97.915 E3.64612
G1 X113.39 Y97.598 E3.65782
G1 X114.711 Y97.275 E3.67488
G1 X115.772 Y97.142 E3.68829
G1 X116.461 Y97.117 E3.69693
G1 X117.835 Y97.211 E3.7142
G1 X119.411 Y97.542 E3.7344
G1 X120.618 Y97.97 E3.75046
G1 X121.333 Y98.313 E3.7604
G1 X122.669 Y99.148 E3.78016
G1 X123.303 Y99.654 E3.79033
G1 X124.207 Y100.547 E3.80627
G1 X124.967 Y101.499 E3.82154
G1 X125.627 Y102.559 E3.8372
G1 X126.104 Y103.569 E3.85121
G1 X126.529 Y104.822 E3.8678
G1 X126.761 Y105.902 E3.88165
G1 X126.856 Y106.749 E3.89234
G1 X126.84 Y108.412 E3.9132
G1 X126.717 Y109.323 E3.92473
G1 X126.377 Y110.68 E3.94227
G1 X125.943 Y111.815 E3.95751
G1 X125.595 Y112.503 E3.96718
G1 X124.755 Y113.791 E3.98646
G1 X124.08 Y114.591 E3.99959
G1 X123.291 Y115.348 E4.0133
G1 X122.036 Y116.28 E4.0329
G1 X121.217 Y116.746 E4.04472
G1 X120.225 Y117.187 E4.05833
G1 X118.818 Y117.618 E4.07679
G1 X117.89 Y117.787 E4.08861
G1 X116.408 Y117.883 E4.10724
G1 X115.6 Y117.845 E4.11738
G1 X114.222 Y117.628 E4.13488
G1 X113.191 Y117.338 E4.14831
G1 X112.158 Y116.926 E4.16225
G1 X110.918 Y116.252 E4.17995
G1 X110.103 Y115.672 E4.1925
G1 X109.087 Y114.764 E4.20958
G1 X108.307 Y113.881 E4.22436
G1 X107.832 Y113.215 E4.23462
G1 X107.063 Y111.828 E4.2545
G1 X106.75 Y111.064 E4.26486
G1 X106.353 Y109.679 E4.28293
G1 X106.164 Y108.475 E4.29821
G1 X106.119 Y107.569 E4.30959
G1 X106.226 Y105.999 E4.32932
G1 X106.369 Y105.215 E4.33931
G1 X106.78 Y103.852 E4.35717
G1 X107.153 Y102.984 E4.36901
G1 X107.986 Y101.561 E4.38969
G1 X108.568 Y100.806 E4.40165
G0 F15000 X108.857 Y101.083
G1 F1350 X109.743 Y100.157 E4.41772
G1 X110.614 Y99.44 E4.43186
G1 X111.484 Y98.875 E4.44487
G1 X112.649 Y98.291 E4.46122
G1 X113.485 Y97.987 E4.47237
G1 X114.806 Y97.664 E4.48943
G1 X115.787 Y97.542 E4.50182
G1 X116.476 Y97.517 E4.51047
G1 X117.807 Y97.61 E4.5272
G1 X119.278 Y97.919 E4.54605
G1 X120.445 Y98.331 E4.56157
G1 X121.16 Y98.674 E4.57151
G1 X122.419 Y99.461 E4.59013
G1 X123.053 Y99.967 E4.60031
G1 X123.894 Y100.797 E4.61512
G1 X124.654 Y101.749 E4.6304
G1 X125.266 Y102.73 E4.6449
G1 X125.725 Y103.698 E4.65833
G1 X126.138 Y104.907 E4.67436
G1 X126.363 Y105.947 E4.6877
G1 X126.458 Y106.794 E4.69839
G1 X126.44 Y108.408 E4.71863
G1 X126.329 Y109.226 E4.72898
G1 X126.003 Y110.537 E4.74592
G1 X125.569 Y111.672 E4.76116
G1 X125.26 Y112.284 E4.76976
G1 X124.42 Y113.572 E4.78904
G1 X123.803 Y114.302 E4.80103
G1 X123.014 Y115.059 E4.81474
G1 X121.838 Y115.932 E4.83311
G1 X121.019 Y116.398 E4.84492
G1 X120.107 Y116.805 E4.85745
G1 X118.746 Y117.224 E4.8753
G1 X117.818 Y117.393 E4.88713
G1 X116.427 Y117.483 E4.90461
G1 X115.619 Y117.445 E4.91476
G1 X114.33 Y117.243 E4.93112
G1 X113.339 Y116.966 E4.94402
G1 X112.306 Y116.554 E4.95797
G1 X111.149 Y115.925 E4.97448
G1 X110.369 Y115.373 E4.98647
G1 X109.387 Y114.499 E5.00295
G1 X108.607 Y113.616 E5.01773
G1 X108.182 Y113.021 E5.0269
G1 X107.413 Y111.634 E5.04679
G1 X107.135 Y110.954 E5.056
G1 X106.738 Y109.569 E5.07407
G1 X106.564 Y108.455 E5.08821
G1 X106.519 Y107.549 E5.09958
G1 X106.62 Y106.071 E5.11816
G1 X106.763 Y105.287 E5.12815
G1 X107.148 Y104.01 E5.14488
G1 X107.521 Y103.142 E5.15673
G1 X108.303 Y101.805 E5.17615
G1 X108.857 Y101.083 E5.18756
G0 F15000 X109.146 Y101.36
G1 F1350 X110.032 Y100.434 E5.20363
G1 X110.833 Y99.775 E5.21664
G1 X111.664 Y99.232 E5.22909
G1 X112.787 Y98.667 E5.24485
G1 X113.58 Y98.376 E5.25545
G1 X114.901 Y98.053 E5.2725
G1 X115.802 Y97.942 E5.28389
G1 X116.491 Y97.917 E5.29253
G1 X117.779 Y98.009 E5.30873
G1 X119.145 Y98.296 E5.32623
G1 X120.272 Y98.692 E5.34121
G1 X120.987 Y99.035 E5.35115
G1 X122.169 Y99.774 E5.36864
G1 X122.803 Y100.28 E5.37881
G1 X123.581 Y101.047 E5.39251
G1 X124.341 Y101.999 E5.40778
G1 X124.905 Y102.902 E5.42114
G1 X125.346 Y103.827 E5.43399
G1 X125.759 Y105.036 E5.45001
G1 X125.965 Y105.992 E5.46227
G1 X126.06 Y106.839 E5.47296
G1 X126.043 Y108.356 E5.49198
G1 X125.941 Y109.129 E5.50176
G1 X125.615 Y110.44 E5.5187
G1 X125.211 Y111.493 E5.53285
G1 X124.925 Y112.065 E5.54087
G1 X124.085 Y113.353 E5.56015
G1 X123.526 Y114.013 E5.571
G1 X122.737 Y114.77 E5.58471
G1 X121.64 Y115.584 E5.60184
G1 X120.821 Y116.05 E5.61366
G1 X119.945 Y116.439 E5.62568
G1 X118.674 Y116.83 E5.64235
G1 X117.746 Y116.999 E5.65418
G1 X116.446 Y117.083 E5.67052
G1 X115.638 Y117.045 E5.68066
G1 X114.437 Y116.857 E5.6959
G1 X113.487 Y116.594 E5.70827
G1 X112.454 Y116.182 E5.72221
G1 X111.341 Y115.574 E5.73812
G1 X110.635 Y115.074 E5.74897
G1 X109.653 Y114.2 E5.76545
G1 X108.932 Y113.382 E5.77913
G1 X108.532 Y112.827 E5.7877
G1 X107.783 Y111.481 E5.80702
G1 X107.52 Y110.844 E5.81566
G1 X107.123 Y109.459 E5.83373
G1 X106.964 Y108.435 E5.84673
G1 X106.919 Y107.529 E5.8581
G1 X107.014 Y106.143 E5.87552
G1 X107.157 Y105.359 E5.88552
G1 X107.516 Y104.168 E5.90112
G1 X107.889 Y103.3 E5.91297
G1 X108.621 Y102.048 E5.93115
G1 X109.146 Y101.36 E5.942
G0 F15000 X109.464 Y101.603
G1 F1350 X110.287 Y100.742 E5.95694
G1 X111.053 Y100.109 E5.9694
G1 X111.844 Y99.589 E5.98127
G1 X112.925 Y99.043 E5.99646
G1 X113.718 Y98.752 E6.00705
G1 X114.95 Y98.45 E6.02296
G1 X115.817 Y98.342 E6.03392
G1 X116.506 Y98.317 E6.04256
G1 X117.698 Y98.401 E6.05755
G1 X119.013 Y98.674 E6.07439
G1 X120.099 Y99.053 E6.08882
G1 X120.814 Y99.396 E6.09876
G1 X121.919 Y100.087 E6.1151
G1 X122.553 Y100.593 E6.12528
G1 X123.269 Y101.297 E6.13787
G1 X124.002 Y102.212 E6.15257
G1 X124.544 Y103.075 E6.16535
G1 X124.967 Y103.956 E6.17761
G1 X125.38 Y105.165 E6.19363
G1 X125.567 Y106.037 E6.20481
G1 X125.662 Y106.884 E6.2155
G1 X125.646 Y108.305 E6.23332
G1 X125.553 Y109.032 E6.24251
G1 X125.227 Y110.343 E6.25945
G1 X124.853 Y111.314 E6.2725
G1 X124.567 Y111.886 E6.28052
G1 X123.779 Y113.095 E6.29862
G1 X123.249 Y113.724 E6.30893
G1 X122.46 Y114.481 E6.32264
G1 X121.441 Y115.237 E6.33856
G1 X120.659 Y115.684 E6.34985
G1 X119.783 Y116.073 E6.36187
G1 X118.602 Y116.436 E6.37737
G1 X117.674 Y116.605 E6.38919
G1 X116.465 Y116.683 E6.40439
G1 X115.657 Y116.645 E6.41453
G1 X114.543 Y116.471 E6.42867
G1 X113.635 Y116.222 E6.44048
G1 X112.602 Y115.81 E6.45442
G1 X111.571 Y115.247 E6.46916
G1 X110.901 Y114.775 E6.47943
G1 X109.919 Y113.901 E6.49592
G1 X109.257 Y113.148 E6.50849
G1 X108.857 Y112.593 E6.51707
G1 X108.152 Y111.327 E6.53524
G1 X107.905 Y110.734 E6.5433
G1 X107.508 Y109.349 E6.56137
G1 X107.364 Y108.415 E6.57322
G1 X107.319 Y107.509 E6.58459
G1 X107.408 Y106.215 E6.60086
G1 X107.551 Y105.431 E6.61085
G1 X107.884 Y104.326 E6.62533
G1 X108.257 Y103.458 E6.63717
G1 X108.939 Y102.291 E6.65412
G1 X109.464 Y101.603 E6.66498
G0 F15000 X109.782 Y101.846
G1 F1350 X110.543 Y101.05 E6.67879
G1 X111.274 Y100.443 E6.6907
G1 X112.025 Y99.946 E6.70199
G1 X113.063 Y99.419 E6.71659
G1 X113.856 Y99.128 E6.72719
G1 X115 Y98.847 E6.74196
G1 X115.832 Y98.742 E6.75248
G1 X116.521 Y98.717 E6.76112
G1 X117.618 Y98.793 E6.77491
G1 X118.882 Y99.052 E6.79109
G1 X119.926 Y99.414 E6.80495
G1 X120.641 Y99.757 E6.81489
G1 X121.669 Y100.4 E6.8301
G1 X122.303 Y100.906 E6.84027
G1 X122.988 Y101.582 E6.85234
G1 X123.663 Y102.425 E6.86588
G1 X124.205 Y103.288 E6.87866
G1 X124.589 Y104.086 E6.88977
G1 X124.989 Y105.25 E6.9052
G1 X125.169 Y106.082 E6.91588
G1 X125.264 Y106.929 E6.92657
G1 X125.249 Y108.254 E6.94318
G1 X125.156 Y108.981 E6.95237
G1 X124.853 Y110.2 E6.96813
G1 X124.495 Y111.135 E6.98068
G1 X124.209 Y111.707 E6.9887
G1 X123.472 Y112.838 E7.00563
G1 X122.972 Y113.435 E7.0154
G1 X122.183 Y114.192 E7.02911
G1 X121.242 Y114.89 E7.0438
G1 X120.497 Y115.318 E7.05457
G1 X119.621 Y115.707 E7.06659
G1 X118.53 Y116.042 E7.08091
G1 X117.602 Y116.211 E7.09273
G1 X116.484 Y116.283 E7.10678
G1 X115.676 Y116.245 E7.11693
G1 X114.648 Y116.085 E7.12997
G1 X113.783 Y115.85 E7.14122
G1 X112.75 Y115.438 E7.15516
G1 X111.8 Y114.919 E7.16874
G1 X111.166 Y114.476 E7.17844
G1 X110.219 Y113.637 E7.1943
G1 X109.582 Y112.914 E7.20639
G1 X109.182 Y112.359 E7.21497
G1 X108.521 Y111.172 E7.232
G1 X108.29 Y110.624 E7.23946
G1 X107.893 Y109.239 E7.25753
G1 X107.764 Y108.395 E7.26824
G1 X107.719 Y107.489 E7.27961
G1 X107.802 Y106.287 E7.29472
G1 X107.945 Y105.503 E7.30471
G1 X108.252 Y104.484 E7.31806
G1 X108.625 Y103.616 E7.32991
G1 X109.257 Y102.534 E7.34562
G1 X109.782 Y101.846 E7.35647
G0 F15000 X110.072 Y102.122
G1 F1350 X110.799 Y101.358 E7.3697
G1 X111.53 Y100.751 E7.38162
G1 X112.207 Y100.302 E7.3918
G1 X113.201 Y99.795 E7.4058
G1 X113.994 Y99.504 E7.41639
