;START_OF_HEADER
;HEADER_VERSION:0.1
;FLAVOR:Griffin
;GENERATOR.NAME:Cura_SteamEngine
;GENERATOR.VERSION:5.10.0
;GENERATOR.BUILD_DATE:2025-03-21
;TARGET_MACHINE.NAME:Ultimaker 3 Extended
;EXTRUDER_TRAIN.0.INITIAL_TEMPERATURE:200
;EXTRUDER_TRAIN.0.MATERIAL.VOLUME_USED:675
;EXTRUDER_TRAIN.0.MATERIAL.GUID:506c9f0d-e3aa-4bd4-b2d2-23e2425b1aa9
;EXTRUDER_TRAIN.0.NOZZLE.DIAMETER:0.4
;EXTRUDER_TRAIN.0.NOZZLE.NAME:AA 0.4
;BUILD_PLATE.INITIAL_TEMPERATURE:60
;PRINT.TIME:535
;PRINT.GROUPS:1
;PRINT.SIZE.MIN.X:9
;PRINT.SIZE.MIN.Y:6
;PRINT.SIZE.MIN.Z:0.2
;PRINT.SIZE.MAX.X:128.485
;PRINT.SIZE.MAX.Y:119.485
;PRINT.SIZE.MAX.Z:9.95
;SLICE_UUID:e859f414-639c-46b3-bdd4-2ed483821583
;END_OF_HEADER
;Generated with Cura_SteamEngine 5.10.0
T0

M82 ;absolute extrusion mode
G92 E0
M190 S60
M104 S200
M109 S200
G0 F15000 X9 Y6 Z2
G280
G1 F1500 E-6.5
;LAYER_COUNT:66
;LAYER:0
M106 S255
M204 S1000
M205 X20 Y20
G1 F600 Z2.2
G0 F15000 X105.363 Y98.785 Z2.2
;TYPE:SKIRT
G1 F600 Z0.2
G1 F1500 E0
G1 F1350 X107.798 Y96.42 E0.04257
G1 X110.57 Y95.515 E0.07914
G1 X122.721 Y95.515 E0.23151
G1 X125.215 Y96.363 E0.26455
G1 X127.58 Y98.798 E0.30712
G1 X128.485 Y101.57 E0.34368
G1 X128.485 Y113.303 E0.49082
G1 X127.913 Y115.489 E0.51916
G1 X126.08 Y118.027 E0.55842
G1 X122.856 Y119.485 E0.60279
G1 X110.624 Y119.485 E0.75618
G1 X108.906 Y119.111 E0.77823
G1 X107.296 Y118.129 E0.80188
G1 X105.41 Y116.185 E0.83585
G1 X104.515 Y113.424 E0.87224
G1 X104.515 Y101.279 E1.02455
G1 X105.363 Y98.785 E1.05758
G0 F15000 X105.711 Y99.005
G1 F1350 X108.011 Y96.771 E1.09779
G1 X110.633 Y95.915 E1.13238
G1 X122.654 Y95.915 E1.28313
G1 X124.995 Y96.711 E1.31413
G1 X127.229 Y99.011 E1.35434
G1 X128.085 Y101.633 E1.38893
G1 X128.085 Y113.252 E1.53464
G1 X127.545 Y115.316 E1.56139
G1 X125.818 Y117.707 E1.59838
G1 X122.771 Y119.085 E1.64032
G1 X110.668 Y119.085 E1.79209
G1 X109.055 Y118.734 E1.81279
G1 X107.55 Y117.816 E1.8349
G1 X105.762 Y115.973 E1.8671
G1 X104.915 Y113.36 E1.90155
G1 X104.915 Y101.346 E2.05221
G1 X105.711 Y99.005 E2.08322
G0 F15000 X106.059 Y99.225
G1 F1350 X108.224 Y97.122 E2.12107
G1 X110.696 Y96.315 E2.15368
G1 X122.587 Y96.315 E2.30279
G1 X124.775 Y97.059 E2.33178
G1 X126.878 Y99.224 E2.36962
G1 X127.685 Y101.696 E2.40223
G1 X127.685 Y113.201 E2.54651
G1 X127.177 Y115.143 E2.57168
G1 X125.556 Y117.387 E2.6064
G1 X122.683 Y118.685 E2.64593
G1 X110.712 Y118.685 E2.79606
G1 X109.204 Y118.357 E2.81541
G1 X107.804 Y117.503 E2.83597
G1 X106.114 Y115.761 E2.86641
G1 X105.315 Y113.296 E2.8989
G1 X105.315 Y101.413 E3.04792
G1 X106.059 Y99.225 E3.0769
G0 F15000 X106.407 Y99.445
G1 F1350 X108.437 Y97.473 E3.11239
G1 X110.759 Y96.715 E3.14303
G1 X122.52 Y96.715 E3.29051
G1 X124.555 Y97.407 E3.31747
G1 X126.527 Y99.437 E3.35296
G1 X127.285 Y101.759 E3.38359
G1 X127.285 Y113.15 E3.52644
G1 X126.809 Y114.97 E3.55003
G1 X125.296 Y117.066 E3.58245
G1 X122.595 Y118.285 E3.61961
G1 X110.756 Y118.285 E3.76807
G1 X109.353 Y117.98 E3.78608
G1 X108.058 Y117.19 E3.8051
G1 X106.466 Y115.549 E3.83377
G1 X105.715 Y113.232 E3.86432
G1 X105.715 Y101.48 E4.01169
G1 X106.407 Y99.445 E4.03865
G0 F15000 X106.755 Y99.665
G1 F1350 X108.65 Y97.824 E4.07178
G1 X110.822 Y97.115 E4.10043
G1 X122.453 Y97.115 E4.24629
G1 X124.335 Y97.755 E4.27121
G1 X126.176 Y99.65 E4.30435
G1 X126.885 Y101.822 E4.333
G1 X126.885 Y113.099 E4.47442
G1 X126.441 Y114.797 E4.49643
G1 X125.035 Y116.747 E4.52657
G1 X122.509 Y117.885 E4.56132
G1 X110.8 Y117.885 E4.70815
G1 X109.502 Y117.603 E4.72481
G1 X108.312 Y116.877 E4.74229
G1 X106.818 Y115.337 E4.7692
G1 X106.115 Y113.168 E4.79779
G1 X106.115 Y101.547 E4.94352
G1 X106.755 Y99.665 E4.96845
G0 F15000 X107.103 Y99.885
G1 F1350 X108.863 Y98.175 E4.99922
G1 X110.885 Y97.515 E5.0259
G1 X122.386 Y97.515 E5.17012
G1 X124.115 Y98.103 E5.19302
G1 X125.825 Y99.863 E5.2238
G1 X126.485 Y101.885 E5.25047
G1 X126.485 Y113.048 E5.39046
G1 X126.073 Y114.622 E5.41086
G1 X124.774 Y116.428 E5.43876
G1 X122.423 Y117.485 E5.47109
G1 X110.844 Y117.485 E5.61629
G1 X109.651 Y117.226 E5.6316
G1 X108.566 Y116.564 E5.64754
G1 X107.17 Y115.125 E5.67268
G1 X106.515 Y113.104 E5.69932
G1 X106.515 Y101.614 E5.84341
G1 X107.103 Y99.885 E5.86631
G0 F15000 X107.451 Y100.105
G1 F1350 X109.076 Y98.526 E5.89473
G1 X110.948 Y97.915 E5.91942
G1 X122.319 Y97.915 E6.06202
G1 X123.895 Y98.451 E6.08289
G1 X125.474 Y100.076 E6.11131
G1 X126.085 Y101.948 E6.136
G1 X126.085 Y112.997 E6.27456
G1 X125.705 Y114.449 E6.29338
G1 X124.513 Y116.108 E6.319
G1 X122.337 Y117.085 E6.34891
G1 X110.888 Y117.085 E6.49249
G1 X109.8 Y116.849 E6.50645
G1 X108.82 Y116.251 E6.52084
G1 X107.522 Y114.913 E6.54422
G1 X106.915 Y113.04 E6.56891
G1 X106.915 Y101.681 E6.71136
G1 X107.451 Y100.105 E6.73223
G0 F15000 X107.799 Y100.325
G1 F1350 X109.289 Y98.877 E6.75829
G1 X111.011 Y98.315 E6.781
G1 X122.252 Y98.315 E6.92197
G1 X123.675 Y98.799 E6.94082
G1 X125.123 Y100.289 E6.96687
G1 X125.685 Y102.011 E6.98959
G1 X125.685 Y112.946 E7.12672
G1 X125.337 Y114.276 E7.14396
G1 X124.251 Y115.788 E7.1673
G1 X122.251 Y116.685 E7.19479
G1 X110.932 Y116.685 E7.33674
G1 X109.951 Y116.472 E7.34933
G1 X109.072 Y115.936 E7.36224
G1 X107.873 Y114.7 E7.38383
G1 X107.315 Y112.979 E7.40652
G1 X107.315 Y101.748 E7.54736
G1 X107.799 Y100.325 E7.56621
G0 F15000 X108.147 Y100.545
G1 F1350 X109.502 Y99.228 E7.5899
G1 X111.074 Y98.715 E7.61064
G1 X122.185 Y98.715 E7.74998
G1 X123.455 Y99.147 E7.7668
G1 X124.772 Y100.502 E7.7905
G1 X125.285 Y102.074 E7.81123
G1 X125.285 Y112.895 E7.94693
G1 X124.969 Y114.103 E7.96259
G1 X123.989 Y115.468 E7.98366
G1 X122.165 Y116.285 E8.00873
G1 X110.976 Y116.285 E8.14904
G1 X110.102 Y116.095 E8.16026
G1 X109.324 Y115.621 E8.17168
G1 X108.224 Y114.487 E8.19149
G1 X107.715 Y112.918 E8.21218
G1 X107.715 Y101.815 E8.35141
G1 X108.147 Y100.545 E8.36824
G0 F15000 X108.495 Y100.765
G1 F1350 X109.715 Y99.579 E8.38957
G1 X111.137 Y99.115 E8.40833
G1 X122.118 Y99.115 E8.54604
G1 X123.235 Y99.495 E8.56083
G1 X124.421 Y100.715 E8.58217
G1 X124.885 Y102.137 E8.60093
G1 X124.885 Y112.844 E8.7352
G1 X124.601 Y113.93 E8.74927
G1 X123.727 Y115.148 E8.76807
G1 X122.08 Y115.885 E8.7907
G1 X111.02 Y115.885 E8.9294
G1 X110.253 Y115.718 E8.93924
G1 X109.573 Y115.304 E8.94923
G1 X108.575 Y114.275 E8.9672
G1 X108.115 Y112.857 E8.9859
G1 X108.115 Y101.882 E9.12353
G1 X108.495 Y100.765 E9.13832
G0 F15000 X108.843 Y100.985
G1 F1350 X109.928 Y99.93 E9.1573
G1 X111.2 Y99.515 E9.17408
G1 X122.051 Y99.515 E9.31016
G1 X123.015 Y99.843 E9.32293
G1 X124.07 Y100.928 E9.3419
G1 X124.485 Y102.2 E9.35868
G1 X124.485 Y112.793 E9.49152
G1 X124.233 Y113.757 E9.50402
G1 X123.465 Y114.828 E9.52054
G1 X121.995 Y115.485 E9.54074
G1 X111.064 Y115.485 E9.67781
G1 X110.404 Y115.341 E9.68629
G1 X109.822 Y114.987 E9.69483
G1 X108.926 Y114.063 E9.71097
G1 X108.515 Y112.796 E9.72767
G1 X108.515 Y101.949 E9.8637
G1 X108.843 Y100.985 E9.87647
G0 F15000 X109.191 Y101.205
G1 F1350 X110.141 Y100.281 E9.89309
G1 X111.263 Y99.915 E9.90789
G1 X121.984 Y99.915 E10.04233
G1 X122.795 Y100.191 E10.05308
G1 X123.719 Y101.141 E10.06969
G1 X124.085 Y102.263 E10.08449
G1 X124.085 Y112.742 E10.21591
G1 X123.865 Y113.584 E10.22682
G1 X123.204 Y114.508 E10.24107
G1 X121.91 Y115.085 E10.25883
G1 X111.108 Y115.085 E10.39429
G1 X110.555 Y114.964 E10.40139
G1 X110.071 Y114.67 E10.40849
G1 X109.277 Y113.851 E10.4228
G1 X108.915 Y112.735 E10.43751
G1 X108.915 Y102.016 E10.57193
G1 X109.191 Y101.205 E10.58268
G0 F15000 X109.539 Y101.425
G1 F1350 X110.354 Y100.632 E10.59694
G1 X111.326 Y100.315 E10.60976
G1 X121.917 Y100.315 E10.74257
G1 X122.575 Y100.539 E10.75129
G1 X123.368 Y101.354 E10.76555
G1 X123.685 Y102.326 E10.77837
G1 X123.685 Y112.691 E10.90835
G1 X123.497 Y113.412 E10.91769
G1 X122.942 Y114.188 E10.92966
G1 X121.824 Y114.685 E10.945
G1 X111.108 Y114.685 E11.07938
G1 X110.648 Y114.575 E11.08532
G1 X110.358 Y114.392 E11.08962
G1 X109.629 Y113.64 E11.10275
G1 X109.315 Y112.673 E11.1155
G1 X109.315 Y102.083 E11.2483
G1 X109.539 Y101.425 E11.25702
G0 F15000 X109.887 Y101.645
G1 F1350 X110.567 Y100.983 E11.26892
G1 X111.389 Y100.715 E11.27976
G1 X121.85 Y100.715 E11.41095
G1 X122.355 Y100.887 E11.41764
G1 X123.017 Y101.567 E11.42954
G1 X123.285 Y102.389 E11.44038
G1 X123.285 Y112.64 E11.56893
G1 X123.129 Y113.239 E11.57669
G1 X122.681 Y113.868 E11.58638
G1 X121.738 Y114.285 E11.59931
G1 X111.148 Y114.285 E11.73211
G1 X110.844 Y114.226 E11.73599
G1 X110.645 Y114.114 E11.73886
G1 X109.981 Y113.429 E11.75082
G1 X109.715 Y112.611 E11.76161
G1 X109.715 Y102.15 E11.89279
G1 X109.887 Y101.645 E11.89948
G0 F15000 X110.166 Y101.932
G1 F1350 X110.78 Y101.334 E11.91023
G1 X111.452 Y101.115 E11.91909
G1 X121.85 Y101.115 E12.04949
G1 X122.068 Y101.166 E12.0523
G1 X122.666 Y101.78 E12.06305
G1 X122.885 Y102.452 E12.07191
G1 X122.885 Y112.64 E12.19967
G1 X122.802 Y113.008 E12.2044
G1 X122.42 Y113.548 E12.2127
G1 X121.654 Y113.885 E12.22319
G1 X111.148 Y113.885 E12.35494
G1 X110.932 Y113.836 E12.35772
G1 X110.333 Y113.218 E12.36851
G1 X110.115 Y112.548 E12.37735
G1 X110.115 Y102.15 E12.50774
G1 X110.166 Y101.932 E12.51055
G0 F15000 X110.515 Y102.15
G1 F1350 X110.993 Y101.685 E12.51891
G1 X111.515 Y101.515 E12.52579
G1 X121.85 Y101.515 E12.6554
G1 X122.315 Y101.993 E12.66376
G1 X122.485 Y102.515 E12.67065
G1 X122.485 Y112.64 E12.79762
G1 X122.43 Y112.842 E12.80024
G1 X122.158 Y113.228 E12.80616
G1 X121.569 Y113.485 E12.81422
G1 X111.148 Y113.485 E12.94491
G1 X110.685 Y113.007 E12.95325
G1 X110.515 Y112.485 E12.96014
G1 X110.515 Y102.15 E13.08974
G0 F15000 X111.315 Y102.416
G1 F1350 X111.515 Y102.315 E13.09255
G1 X121.584 Y102.315 E13.21882
G1 X121.685 Y102.515 E13.22163
G1 X121.685 Y112.584 E13.3479
G1 X121.485 Y112.685 E13.35071
G1 X111.416 Y112.685 E13.47698
G1 X111.315 Y112.485 E13.47979
G1 X111.315 Y102.416 E13.60606
G0 F15000 X111.135 Y102.059
G1 F1350 X111.515 Y101.915 E13.61115
G1 X121.716 Y101.915 E13.73908
G1 X121.941 Y102.135 E13.74302
G1 X122.085 Y102.515 E13.74812
G1 X122.085 Y112.64 E13.87509
G1 X121.935 Y112.896 E13.87881
G1 X121.485 Y113.085 E13.88493
G1 X111.283 Y113.085 E14.01287
G1 X111.059 Y112.865 E14.01681
G1 X110.915 Y112.485 E14.0219
G1 X110.915 Y102.284 E14.14983
G1 X111.135 Y102.059 E14.15377
M204 S429
G1 F1500 E7.65377
;MESH:10mm cube.STL
G0 F15000 X111.135 Y99.475
G0 X124.513 Y99.487
G0 X124.525 Y112.284
G0 X121.284 Y112.284
;TYPE:WALL-OUTER
G1 F1500 E14.15377
G1 F1350 X121.284 Y102.712 E14.28581
G1 X111.712 Y102.712 E14.41785
G1 X111.712 Y112.284 E14.54989
G1 X121.284 Y112.284 E14.68193
M204 S1000
G0 F15000 X121.284 Y112.084
G0 X120.884 Y111.884
;TYPE:WALL-INNER
G1 F1350 X120.884 Y103.112 E14.78644
G1 X112.112 Y103.112 E14.89094
G1 X112.112 Y111.884 E14.99544
G1 X120.884 Y111.884 E15.09995
G0 F15000 X120.544 Y111.544
;TYPE:SKIN
G1 F1350 X120.544 Y103.452 E15.19153
G1 X112.452 Y103.452 E15.28311
G1 X112.452 Y111.544 E15.3747
G1 X120.544 Y111.544 E15.46628
G1 F1500 E8.96628
G0 F15000 X120.057 Y103.652
G1 F1500 E15.46628
G1 F1350 X120.344 Y103.939 E15.47087
G0 F15000 X120.344 Y104.505
G1 F1350 X119.491 Y103.652 E15.48453
G0 F15000 X118.925 Y103.652
G1 F1350 X120.344 Y105.07 E15.50723
G0 F15000 X120.344 Y105.636
G1 F1350 X118.36 Y103.652 E15.53898
G0 F15000 X117.794 Y103.652
G1 F1350 X120.344 Y106.202 E15.5798
G0 F15000 X120.344 Y106.767
G1 F1350 X117.228 Y103.652 E15.62966
G0 F15000 X116.663 Y103.652
G1 F1350 X120.344 Y107.333 E15.68858
G0 F15000 X120.344 Y107.899
G1 F1350 X116.097 Y103.652 E15.75656
G0 F15000 X115.531 Y103.652
G1 F1350 X120.344 Y108.465 E15.83359
G0 F15000 X120.344 Y109.03
G1 F1350 X114.966 Y103.652 E15.91967
G0 F15000 X114.4 Y103.652
G1 F1350 X120.344 Y109.596 E16.01481
G0 F15000 X120.344 Y110.162
G1 F1350 X113.834 Y103.652 E16.119
G0 F15000 X113.269 Y103.652
G1 F1350 X120.344 Y110.727 E16.23224
G0 F15000 X120.344 Y111.293
G1 F1350 X112.703 Y103.652 E16.35454
G0 F15000 X112.652 Y104.167
G1 F1350 X119.829 Y111.344 E16.46942
G0 F15000 X119.263 Y111.344
G1 F1350 X112.652 Y104.732 E16.57524
G0 F15000 X112.652 Y105.298
G1 F1350 X118.698 Y111.344 E16.67201
G0 F15000 X118.132 Y111.344
G1 F1350 X112.652 Y105.864 E16.75972
G0 F15000 X112.652 Y106.429
G1 F1350 X117.566 Y111.344 E16.83838
G0 F15000 X117.001 Y111.344
G1 F1350 X112.652 Y106.995 E16.90799
G0 F15000 X112.652 Y107.561
G1 F1350 X116.435 Y111.344 E16.96854
G0 F15000 X115.869 Y111.344
G1 F1350 X112.652 Y108.127 E17.02003
G0 F15000 X112.652 Y108.692
G1 F1350 X115.304 Y111.344 E17.06247
G0 F15000 X114.738 Y111.344
G1 F1350 X112.652 Y109.258 E17.09586
G0 F15000 X112.652 Y109.824
G1 F1350 X114.172 Y111.344 E17.12019
G0 F15000 X113.607 Y111.344
G1 F1350 X112.652 Y110.389 E17.13547
G0 F15000 X112.652 Y110.955
G1 F1350 X113.041 Y111.344 E17.1417
M204 S429
G1 F1500 E10.6417
;MESH:NONMESH
G0 F600 X113.041 Y111.344 Z0.35
G0 F15000 X113.041 Y115.525
G0 X121.284 Y115.525
G0 X121.284 Y112.284
;TIME_ELAPSED:68.351936
;LAYER:1
;TYPE:WALL-OUTER
;MESH:10mm cube.STL
G1 F1500 E17.1417
G1 F1800 X121.284 Y102.712 E17.23173
G1 X111.712 Y102.712 E17.32175
G1 X111.712 Y112.284 E17.41178
G1 X121.284 Y112.284 E17.50181
M204 S1500
G0 F15000 X121.284 Y112.084
G0 X120.884 Y111.884
;TYPE:WALL-INNER
G1 F2400 X120.884 Y103.112 E17.58431
G1 X112.112 Y103.112 E17.66682
G1 X112.112 Y111.884 E17.74932
G1 X120.884 Y111.884 E17.83182
M204 S1000
G0 F15000 X120.544 Y111.544
;TYPE:SKIN
G1 F1800 X120.544 Y103.452 E17.90412
G1 X112.452 Y103.452 E17.97643
G1 X112.452 Y111.544 E18.04873
G1 X120.544 Y111.544 E18.12103
G0 F15000 X120.021 Y111.344
G1 F1800 X120.344 Y111.021 E18.12511
G0 F15000 X120.344 Y110.456
G1 F1800 X119.456 Y111.344 E18.13633
G0 F15000 X118.89 Y111.344
G1 F1800 X120.344 Y109.89 E18.15471
G0 F15000 X120.344 Y109.324
G1 F1800 X118.324 Y111.344 E18.18023
G0 F15000 X117.759 Y111.344
G1 F1800 X120.344 Y108.759 E18.21289
G0 F15000 X120.344 Y108.193
G1 F1800 X117.193 Y111.344 E18.25271
G0 F15000 X116.627 Y111.344
G1 F1800 X120.344 Y107.627 E18.29968
G0 F15000 X120.344 Y107.062
G1 F1800 X116.062 Y111.344 E18.35379
G0 F15000 X115.496 Y111.344
G1 F1800 X120.344 Y106.496 E18.41505
G0 F15000 X120.344 Y105.93
G1 F1800 X114.93 Y111.344 E18.48346
G0 F15000 X114.365 Y111.344
G1 F1800 X120.344 Y105.365 E18.55901
G0 F15000 X120.344 Y104.799
G1 F1800 X113.799 Y111.344 E18.64171
G0 F15000 X113.233 Y111.344
G1 F1800 X120.344 Y104.233 E18.73156
G0 F15000 X120.344 Y103.668
G1 F1800 X112.668 Y111.344 E18.82856
G0 F15000 X112.652 Y110.794
G1 F1800 X119.794 Y103.652 E18.91881
G0 F15000 X119.228 Y103.652
G1 F1800 X112.652 Y110.228 E19.0019
G0 F15000 X112.652 Y109.662
G1 F1800 X118.662 Y103.652 E19.07784
G0 F15000 X118.097 Y103.652
G1 F1800 X112.652 Y109.097 E19.14665
G0 F15000 X112.652 Y108.531
G1 F1800 X117.531 Y103.652 E19.2083
G0 F15000 X116.965 Y103.652
G1 F1800 X112.652 Y107.965 E19.2628
G0 F15000 X112.652 Y107.4
G1 F1800 X116.4 Y103.652 E19.31016
G0 F15000 X115.834 Y103.652
G1 F1800 X112.652 Y106.834 E19.35036
G0 F15000 X112.652 Y106.268
G1 F1800 X115.268 Y103.652 E19.38342
G0 F15000 X114.703 Y103.652
G1 F1800 X112.652 Y105.703 E19.40934
G0 F15000 X112.652 Y105.137
G1 F1800 X114.137 Y103.652 E19.4281
G0 F15000 X113.571 Y103.652
G1 F1800 X112.652 Y104.571 E19.43971
G0 F15000 X112.652 Y104.006
G1 F1800 X113.006 Y103.652 E19.44419
M204 S429
G0 F15000 X113.006 Y103.725
;MESH:NONMESH
G0 F600 X113.006 Y103.725 Z0.5
G0 F15000 X121.005 Y112.005
G0 X121.284 Y112.284
;TIME_ELAPSED:78.732109
;LAYER:2
;TYPE:WALL-OUTER
;MESH:10mm cube.STL
G1 F1800 X121.284 Y102.712 E19.53421
G1 X111.712 Y102.712 E19.62424
G1 X111.712 Y112.284 E19.71427
G1 X121.284 Y112.284 E19.80429
M204 S1500
G0 F15000 X121.284 Y112.084
G0 X120.884 Y111.884
;TYPE:WALL-INNER
G1 F2400 X120.884 Y103.112 E19.8868
G1 X112.112 Y103.112 E19.9693
G1 X112.112 Y111.884 E20.0518
G1 X120.884 Y111.884 E20.13431
M204 S1000
G0 F15000 X120.544 Y111.544
;TYPE:SKIN
G1 F1800 X120.544 Y103.452 E20.20661
G1 X112.452 Y103.452 E20.27891
G1 X112.452 Y111.544 E20.35121
G1 X120.544 Y111.544 E20.42352
G0 F15000 X120.057 Y103.652
G1 F1800 X120.344 Y103.939 E20.42714
G0 F15000 X120.344 Y104.505
G1 F1800 X119.491 Y103.652 E20.43792
G0 F15000 X118.925 Y103.652
G1 F1800 X120.344 Y105.07 E20.45585
