;START_OF_HEADER
;HEADER_VERSION:0.1
;FLAVOR:Griffin
;GENERATOR.NAME:Cura_SteamEngine
;GENERATOR.VERSION:5.10.0
;GENERATOR.BUILD_DATE:2025-03-21
;TARGET_MACHINE.NAME:Ultimaker 3 Extended
;EXTRUDER_TRAIN.0.INITIAL_TEMPERATURE:200
;EXTRUDER_TRAIN.0.MATERIAL.VOLUME_USED:6032
;EXTRUDER_TRAIN.0.MATERIAL.GUID:506c9f0d-e3aa-4bd4-b2d2-23e2425b1aa9
;EXTRUDER_TRAIN.0.NOZZLE.DIAMETER:0.4
;EXTRUDER_TRAIN.0.NOZZLE.NAME:AA 0.4
;BUILD_PLATE.INITIAL_TEMPERATURE:60
;PRINT.TIME:2727
;PRINT.GROUPS:1
;PRINT.SIZE.MIN.X:9
;PRINT.SIZE.MIN.Y:6
;PRINT.SIZE.MIN.Z:0.2
;PRINT.SIZE.MAX.X:135.985
;PRINT.SIZE.MAX.Y:126.985
;PRINT.SIZE.MAX.Z:24.95
;SLICE_UUID:2d32b8f2-bc61-4cf9-8f2e-e5931fd58ec3
;END_OF_HEADER
;Generated with Cura_SteamEngine 5.10.0
T0

M82 ;absolute extrusion mode
G92 E0
M190 S60
M104 S200
M109 S200
G0 F15000 X9 Y6 Z2
G280
G1 F1500 E-6.5
;LAYER_COUNT:166
;LAYER:0
M106 S255
M204 S1000
M205 X20 Y20
G1 F600 Z2.2
G0 F15000 X97.863 Y91.285 Z2.2
;TYPE:SKIRT
G1 F600 Z0.2
G1 F1500 E0
G1 F1350 X100.298 Y88.92 E0.04257
G1 X103.07 Y88.015 E0.07914
G1 X130.221 Y88.015 E0.41962
G1 X132.715 Y88.863 E0.45265
G1 X135.08 Y91.298 E0.49522
G1 X135.985 Y94.07 E0.53179
G1 X135.985 Y120.803 E0.86703
G1 X135.413 Y122.989 E0.89537
G1 X133.58 Y125.527 E0.93463
G1 X130.356 Y126.985 E0.979
G1 X103.124 Y126.985 E1.3205
G1 X101.406 Y126.611 E1.34255
G1 X99.796 Y125.629 E1.3662
G1 X97.91 Y123.685 E1.40016
G1 X97.015 Y120.924 E1.43656
G1 X97.015 Y93.779 E1.77697
G1 X97.863 Y91.285 E1.81
G0 F15000 X98.211 Y91.505
G1 F1350 X100.511 Y89.271 E1.85021
G1 X103.133 Y88.415 E1.8848
G1 X130.154 Y88.415 E2.22365
G1 X132.495 Y89.211 E2.25466
G1 X134.729 Y91.511 E2.29487
G1 X135.585 Y94.133 E2.32946
G1 X135.585 Y120.752 E2.66327
G1 X135.045 Y122.816 E2.69003
G1 X133.318 Y125.207 E2.72701
G1 X130.271 Y126.585 E2.76895
G1 X103.168 Y126.585 E3.10883
G1 X101.555 Y126.234 E3.12953
G1 X100.05 Y125.316 E3.15164
G1 X98.262 Y123.473 E3.18384
G1 X97.415 Y120.86 E3.21829
G1 X97.415 Y93.846 E3.55705
G1 X98.211 Y91.505 E3.58806
G0 F15000 X98.559 Y91.725
G1 F1350 X100.724 Y89.622 E3.62591
G1 X103.196 Y88.815 E3.65852
G1 X130.087 Y88.815 E3.99574
G1 X132.275 Y89.559 E4.02473
G1 X134.378 Y91.724 E4.06258
G1 X135.185 Y94.196 E4.09518
G1 X135.185 Y120.701 E4.42757
G1 X134.677 Y122.643 E4.45274
G1 X133.056 Y124.887 E4.48746
G1 X130.183 Y126.185 E4.52699
G1 X103.212 Y126.185 E4.86522
G1 X101.704 Y125.857 E4.88457
G1 X100.304 Y125.003 E4.90513
G1 X98.614 Y123.261 E4.93557
G1 X97.815 Y120.796 E4.96807
G1 X97.815 Y93.913 E5.30519
G1 X98.559 Y91.725 E5.33417
G0 F15000 X98.907 Y91.945
G1 F1350 X100.937 Y89.973 E5.36966
G1 X103.259 Y89.215 E5.40029
G1 X130.02 Y89.215 E5.73589
G1 X132.055 Y89.907 E5.76284
G1 X134.027 Y91.937 E5.79833
G1 X134.785 Y94.259 E5.82896
G1 X134.785 Y120.65 E6.15991
G1 X134.309 Y122.47 E6.18351
G1 X132.796 Y124.566 E6.21592
G1 X130.095 Y125.785 E6.25308
G1 X103.256 Y125.785 E6.58966
G1 X101.853 Y125.48 E6.60766
G1 X100.558 Y124.69 E6.62668
G1 X98.966 Y123.049 E6.65536
G1 X98.215 Y120.732 E6.6859
G1 X98.215 Y93.98 E7.02138
G1 X98.907 Y91.945 E7.04833
G0 F15000 X99.255 Y92.165
G1 F1350 X101.15 Y90.324 E7.08147
G1 X103.322 Y89.615 E7.11012
G1 X129.953 Y89.615 E7.44408
G1 X131.835 Y90.255 E7.46901
G1 X133.676 Y92.15 E7.50214
G1 X134.385 Y94.322 E7.53079
G1 X134.385 Y120.599 E7.86032
G1 X133.941 Y122.297 E7.88233
G1 X132.535 Y124.247 E7.91247
G1 X130.009 Y125.385 E7.94722
G1 X103.3 Y125.385 E8.28216
G1 X102.002 Y125.103 E8.29881
G1 X100.812 Y124.377 E8.3163
G1 X99.318 Y122.837 E8.3432
G1 X98.615 Y120.668 E8.3718
G1 X98.615 Y94.047 E8.70563
G1 X99.255 Y92.165 E8.73056
G0 F15000 X99.603 Y92.385
G1 F1350 X101.363 Y90.675 E8.76133
G1 X103.385 Y90.015 E8.78801
G1 X129.886 Y90.015 E9.12034
G1 X131.615 Y90.603 E9.14324
G1 X133.325 Y92.363 E9.17401
G1 X133.985 Y94.385 E9.20069
G1 X133.985 Y120.548 E9.52878
G1 X133.573 Y122.122 E9.54918
G1 X132.274 Y123.928 E9.57708
G1 X129.923 Y124.985 E9.60941
G1 X103.344 Y124.985 E9.94272
G1 X102.151 Y124.726 E9.95803
G1 X101.066 Y124.064 E9.97397
G1 X99.67 Y122.625 E9.99911
G1 X99.015 Y120.604 E10.02575
G1 X99.015 Y94.114 E10.35794
G1 X99.603 Y92.385 E10.38085
G0 F15000 X99.951 Y92.605
G1 F1350 X101.576 Y91.026 E10.40926
G1 X103.448 Y90.415 E10.43395
G1 X129.819 Y90.415 E10.76466
G1 X131.395 Y90.951 E10.78553
G1 X132.974 Y92.576 E10.81395
G1 X133.585 Y94.448 E10.83864
G1 X133.585 Y120.497 E11.1653
G1 X133.205 Y121.949 E11.18413
G1 X132.013 Y123.608 E11.20974
G1 X129.837 Y124.585 E11.23966
G1 X103.388 Y124.585 E11.57134
G1 X102.3 Y124.349 E11.5853
G1 X101.32 Y123.751 E11.5997
G1 X100.022 Y122.413 E11.62307
G1 X99.415 Y120.54 E11.64776
G1 X99.415 Y94.181 E11.97831
G1 X99.951 Y92.605 E11.99919
G0 F15000 X100.299 Y92.825
G1 F1350 X101.789 Y91.377 E12.02525
G1 X103.511 Y90.815 E12.04796
G1 X129.752 Y90.815 E12.37703
G1 X131.175 Y91.299 E12.39588
G1 X132.623 Y92.789 E12.42194
G1 X133.185 Y94.511 E12.44465
G1 X133.185 Y120.446 E12.76989
G1 X132.837 Y121.776 E12.78713
G1 X131.751 Y123.288 E12.81047
G1 X129.751 Y124.185 E12.83796
G1 X103.432 Y124.185 E13.16801
G1 X102.451 Y123.972 E13.1806
G1 X101.572 Y123.436 E13.19351
G1 X100.373 Y122.2 E13.2151
G1 X99.815 Y120.479 E13.23779
G1 X99.815 Y94.248 E13.56674
G1 X100.299 Y92.825 E13.58559
G0 F15000 X100.647 Y93.045
G1 F1350 X102.002 Y91.728 E13.60928
G1 X103.574 Y91.215 E13.63002
G1 X129.685 Y91.215 E13.95746
G1 X130.955 Y91.647 E13.97428
G1 X132.272 Y93.002 E13.99798
G1 X132.785 Y94.574 E14.01872
G1 X132.785 Y120.395 E14.34252
G1 X132.469 Y121.603 E14.35818
G1 X131.489 Y122.968 E14.37925
G1 X129.665 Y123.785 E14.40432
G1 X103.476 Y123.785 E14.73274
G1 X102.602 Y123.595 E14.74395
G1 X101.824 Y123.121 E14.75538
G1 X100.724 Y121.987 E14.77519
G1 X100.215 Y120.418 E14.79587
G1 X100.215 Y94.315 E15.12321
G1 X100.647 Y93.045 E15.14004
G0 F15000 X100.995 Y93.265
G1 F1350 X102.215 Y92.079 E15.16137
G1 X103.637 Y91.615 E15.18013
G1 X129.618 Y91.615 E15.50594
G1 X130.735 Y91.995 E15.52074
G1 X131.921 Y93.215 E15.54208
G1 X132.385 Y94.637 E15.56083
G1 X132.385 Y120.344 E15.88321
G1 X132.101 Y121.43 E15.89729
G1 X131.227 Y122.648 E15.91609
G1 X129.58 Y123.385 E15.93871
G1 X103.52 Y123.385 E16.26552
G1 X102.753 Y123.218 E16.27536
G1 X102.073 Y122.804 E16.28534
G1 X101.075 Y121.775 E16.30332
G1 X100.615 Y120.357 E16.32201
G1 X100.615 Y94.382 E16.64775
G1 X100.995 Y93.265 E16.66255
G0 F15000 X101.343 Y93.485
G1 F1350 X102.428 Y92.43 E16.68152
G1 X103.7 Y92.015 E16.6983
G1 X129.551 Y92.015 E17.02248
G1 X130.515 Y92.343 E17.03525
G1 X131.57 Y93.428 E17.05423
G1 X131.985 Y94.7 E17.07101
G1 X131.985 Y120.293 E17.39196
G1 X131.733 Y121.257 E17.40445
G1 X130.965 Y122.328 E17.42098
G1 X129.495 Y122.985 E17.44117
G1 X103.564 Y122.985 E17.76635
G1 X102.904 Y122.841 E17.77483
G1 X102.322 Y122.487 E17.78337
G1 X101.426 Y121.563 E17.79951
G1 X101.015 Y120.296 E17.81621
G1 X101.015 Y94.449 E18.14034
G1 X101.343 Y93.485 E18.15311
G0 F15000 X101.691 Y93.705
G1 F1350 X102.641 Y92.781 E18.16973
G1 X103.763 Y92.415 E18.18453
G1 X129.484 Y92.415 E18.50708
G1 X130.295 Y92.691 E18.51783
G1 X131.219 Y93.641 E18.53444
G1 X131.585 Y94.763 E18.54924
G1 X131.585 Y120.242 E18.86876
G1 X131.365 Y121.084 E18.87967
G1 X130.704 Y122.008 E18.89392
G1 X129.41 Y122.585 E18.91169
G1 X103.608 Y122.585 E19.23526
G1 X103.055 Y122.464 E19.24235
G1 X102.571 Y122.17 E19.24946
G1 X101.777 Y121.351 E19.26376
G1 X101.415 Y120.235 E19.27847
G1 X101.415 Y94.516 E19.601
G1 X101.691 Y93.705 E19.61174
G0 F15000 X102.039 Y93.925
G1 F1350 X102.854 Y93.132 E19.626
G1 X103.826 Y92.815 E19.63882
G1 X129.417 Y92.815 E19.95974
G1 X130.075 Y93.039 E19.96846
G1 X130.868 Y93.854 E19.98272
G1 X131.185 Y94.826 E19.99554
G1 X131.185 Y120.191 E20.31363
G1 X130.997 Y120.912 E20.32297
G1 X130.442 Y121.688 E20.33494
G1 X129.324 Y122.185 E20.35028
G1 X103.608 Y122.185 E20.67277
G1 X103.148 Y122.075 E20.6787
G1 X102.858 Y121.892 E20.683
G1 X102.129 Y121.14 E20.69613
G1 X101.815 Y120.173 E20.70888
G1 X101.815 Y94.583 E21.02979
G1 X102.039 Y93.925 E21.03851
G0 F15000 X102.387 Y94.145
G1 F1350 X103.067 Y93.483 E21.05041
G1 X103.889 Y93.215 E21.06125
G1 X129.35 Y93.215 E21.38054
G1 X129.855 Y93.387 E21.38723
G1 X130.517 Y94.067 E21.39913
G1 X130.785 Y94.889 E21.40998
G1 X130.785 Y120.14 E21.72663
G1 X130.629 Y120.739 E21.73439
G1 X130.181 Y121.368 E21.74408
G1 X129.238 Y121.785 E21.75701
G1 X103.648 Y121.785 E22.07792
G1 X103.344 Y121.726 E22.0818
G1 X103.145 Y121.614 E22.08466
G1 X102.481 Y120.929 E22.09663
G1 X102.215 Y120.111 E22.10741
G1 X102.215 Y94.65 E22.4267
G1 X102.387 Y94.145 E22.43339
G0 F15000 X102.666 Y94.432
G1 F1350 X103.28 Y93.834 E22.44414
G1 X103.952 Y93.615 E22.45301
G1 X129.35 Y93.615 E22.77151
G1 X129.568 Y93.666 E22.77431
G1 X130.166 Y94.28 E22.78506
G1 X130.385 Y94.952 E22.79393
G1 X130.385 Y120.14 E23.10979
G1 X130.302 Y120.508 E23.11452
G1 X129.92 Y121.048 E23.12282
G1 X129.154 Y121.385 E23.13331
G1 X103.648 Y121.385 E23.45317
G1 X103.432 Y121.336 E23.45594
G1 X102.833 Y120.718 E23.46674
G1 X102.615 Y120.048 E23.47557
G1 X102.615 Y94.65 E23.79407
G1 X102.666 Y94.432 E23.79688
G0 F15000 X103.015 Y94.65
G1 F1350 X103.493 Y94.185 E23.80524
G1 X104.015 Y94.015 E23.81213
G1 X129.35 Y94.015 E24.12984
G1 X129.815 Y94.493 E24.1382
G1 X129.985 Y95.015 E24.14509
G1 X129.985 Y120.14 E24.46016
G1 X129.93 Y120.342 E24.46279
G1 X129.658 Y120.728 E24.46871
G1 X129.069 Y120.985 E24.47677
G1 X103.648 Y120.985 E24.79556
G1 X103.185 Y120.507 E24.8039
G1 X103.015 Y119.985 E24.81079
G1 X103.015 Y94.65 E25.1285
G0 F15000 X103.815 Y94.916
G1 F1350 X104.015 Y94.815 E25.13131
G1 X129.084 Y94.815 E25.44568
G1 X129.185 Y95.015 E25.44849
G1 X129.185 Y120.084 E25.76287
G1 X128.985 Y120.185 E25.76568
G1 X103.916 Y120.185 E26.08005
G1 X103.815 Y119.985 E26.08286
G1 X103.815 Y94.916 E26.39723
G0 F15000 X103.635 Y94.559
G1 F1350 X104.015 Y94.415 E26.40233
G1 X129.216 Y94.415 E26.71836
G1 X129.441 Y94.635 E26.72231
G1 X129.585 Y95.015 E26.7274
G1 X129.585 Y120.14 E27.04248
G1 X129.435 Y120.396 E27.0462
G1 X128.985 Y120.585 E27.05232
G1 X103.783 Y120.585 E27.36836
G1 X103.559 Y120.365 E27.3723
G1 X103.415 Y119.985 E27.3774
G1 X103.415 Y94.784 E27.69343
G1 X103.635 Y94.559 E27.69737
M204 S429
G1 F1500 E21.19737
;MESH:25mm cube.STL
G0 F15000 X103.635 Y91.975
G0 X132.013 Y91.987
G0 X132.025 Y119.784
G0 X128.784 Y119.784
;TYPE:WALL-OUTER
G1 F1500 E27.69737
G1 F1350 X128.784 Y95.212 E28.03633
G1 X104.212 Y95.212 E28.37529
G1 X104.212 Y119.784 E28.71424
G1 X128.784 Y119.784 E29.0532
M204 S1000
G0 F15000 X128.784 Y119.584
G0 X128.384 Y119.384
;TYPE:WALL-INNER
G1 F1350 X128.384 Y95.612 E29.3364
G1 X104.612 Y95.612 E29.61961
G1 X104.612 Y119.384 E29.90281
G1 X128.384 Y119.384 E30.18601
G0 F15000 X128.044 Y119.044
;TYPE:SKIN
G1 F1350 X128.044 Y95.952 E30.44736
G1 X104.952 Y95.952 E30.70871
G1 X104.952 Y119.044 E30.97006
G1 X128.044 Y119.044 E31.23141
G1 F1500 E24.73141
G0 F15000 X132.025 Y119.044
G0 X132.025 Y96.152
G0 X127.264 Y96.152
G1 F1500 E31.23141
G1 F1350 X127.844 Y96.732 E31.24069
G0 F15000 X127.844 Y97.297
G1 F1350 X126.699 Y96.152 E31.25902
G0 F15000 X126.133 Y96.152
G1 F1350 X127.844 Y97.863 E31.2864
G0 F15000 X127.844 Y98.429
G1 F1350 X125.567 Y96.152 E31.32285
G0 F15000 X125.002 Y96.152
G1 F1350 X127.844 Y98.994 E31.36833
G0 F15000 X127.844 Y99.56
G1 F1350 X124.436 Y96.152 E31.42288
G0 F15000 X123.87 Y96.152
G1 F1350 X127.844 Y100.126 E31.48649
G0 F15000 X127.844 Y100.691
G1 F1350 X123.305 Y96.152 E31.55914
G0 F15000 X122.739 Y96.152
G1 F1350 X127.844 Y101.257 E31.64085
G0 F15000 X127.844 Y101.823
G1 F1350 X122.173 Y96.152 E31.73161
G0 F15000 X121.608 Y96.152
G1 F1350 X127.844 Y102.388 E31.83143
G0 F15000 X127.844 Y102.954
G1 F1350 X121.042 Y96.152 E31.9403
G0 F15000 X120.476 Y96.152
G1 F1350 X127.844 Y103.52 E32.05823
G0 F15000 X127.844 Y104.085
G1 F1350 X119.91 Y96.152 E32.18521
G0 F15000 X119.345 Y96.152
G1 F1350 X127.844 Y104.651 E32.32124
G0 F15000 X127.844 Y105.217
G1 F1350 X118.779 Y96.152 E32.46633
G0 F15000 X118.213 Y96.152
G1 F1350 X127.844 Y105.782 E32.62047
G0 F15000 X127.844 Y106.348
G1 F1350 X117.648 Y96.152 E32.78366
G0 F15000 X117.082 Y96.152
G1 F1350 X127.844 Y106.914 E32.95592
G0 F15000 X127.844 Y107.48
G1 F1350 X116.516 Y96.152 E33.13723
G0 F15000 X115.951 Y96.152
G1 F1350 X127.844 Y108.045 E33.32758
G0 F15000 X127.844 Y108.611
G1 F1350 X115.385 Y96.152 E33.527
G0 F15000 X114.819 Y96.152
G1 F1350 X127.844 Y109.177 E33.73547
G0 F15000 X127.844 Y109.742
G1 F1350 X114.254 Y96.152 E33.95299
G0 F15000 X113.688 Y96.152
G1 F1350 X127.844 Y110.308 E34.17956
G0 F15000 X127.844 Y110.874
G1 F1350 X113.122 Y96.152 E34.4152
G0 F15000 X112.557 Y96.152
G1 F1350 X127.844 Y111.439 E34.65988
G0 F15000 X127.844 Y112.005
G1 F1350 X111.991 Y96.152 E34.91361
G0 F15000 X111.425 Y96.152
G1 F1350 X127.844 Y112.571 E35.17641
G0 F15000 X127.844 Y113.136
G1 F1350 X110.859 Y96.152 E35.44826
G0 F15000 X110.294 Y96.152
G1 F1350 X127.844 Y113.702 E35.72915
G0 F15000 X127.844 Y114.268
G1 F1350 X109.728 Y96.152 E36.01911
G0 F15000 X109.162 Y96.152
G1 F1350 X127.844 Y114.833 E36.31812
G0 F15000 X127.844 Y115.399
G1 F1350 X108.597 Y96.152 E36.62618
G0 F15000 X108.031 Y96.152
G1 F1350 X127.844 Y115.965 E36.9433
G0 F15000 X127.844 Y116.53
G1 F1350 X107.465 Y96.152 E37.26947
G0 F15000 X106.9 Y96.152
G1 F1350 X127.844 Y117.096 E37.60469
G0 F15000 X127.844 Y117.662
G1 F1350 X106.334 Y96.152 E37.94897
G0 F15000 X105.768 Y96.152
G1 F1350 X127.844 Y118.228 E38.30231
G0 F15000 X127.844 Y118.793
G1 F1350 X105.203 Y96.152 E38.6647
G0 F15000 X105.152 Y96.666
G1 F1350 X127.329 Y118.844 E39.01966
G0 F15000 X126.764 Y118.844
G1 F1350 X105.152 Y97.232 E39.36558
G0 F15000 X105.152 Y97.798
G1 F1350 X126.198 Y118.844 E39.70243
G0 F15000 X125.632 Y118.844
G1 F1350 X105.152 Y98.364 E40.03023
G0 F15000 X105.152 Y98.929
G1 F1350 X125.067 Y118.844 E40.34898
G0 F15000 X124.501 Y118.844
G1 F1350 X105.152 Y99.495 E40.65867
G0 F15000 X105.152 Y100.061
G1 F1350 X123.935 Y118.844 E40.9593
G0 F15000 X123.37 Y118.844
G1 F1350 X105.152 Y100.626 E41.25089
G0 F15000 X105.152 Y101.192
G1 F1350 X122.804 Y118.844 E41.53343
G0 F15000 X122.238 Y118.844
G1 F1350 X105.152 Y101.758 E41.8069
G0 F15000 X105.152 Y102.323
G1 F1350 X121.673 Y118.844 E42.07133
G0 F15000 X121.107 Y118.844
G1 F1350 X105.152 Y102.889 E42.3267
G0 F15000 X105.152 Y103.455
G1 F1350 X120.541 Y118.844 E42.57301
G0 F15000 X119.976 Y118.844
G1 F1350 X105.152 Y104.02 E42.81027
G0 F15000 X105.152 Y104.586
G1 F1350 X119.41 Y118.844 E43.03848
G0 F15000 X118.844 Y118.844
G1 F1350 X105.152 Y105.152 E43.25763
G0 F15000 X105.152 Y105.717
G1 F1350 X118.278 Y118.844 E43.46773
G0 F15000 X117.713 Y118.844
G1 F1350 X105.152 Y106.283 E43.66878
G0 F15000 X105.152 Y106.849
G1 F1350 X117.147 Y118.844 E43.86076
G0 F15000 X116.581 Y118.844
G1 F1350 X105.152 Y107.414 E44.0437
G0 F15000 X105.152 Y107.98
G1 F1350 X116.016 Y118.844 E44.21759
G0 F15000 X115.45 Y118.844
G1 F1350 X105.152 Y108.546 E44.38241
G0 F15000 X105.152 Y109.112
G1 F1350 X114.884 Y118.844 E44.53818
G0 F15000 X114.319 Y118.844
G1 F1350 X105.152 Y109.677 E44.6849
G0 F15000 X105.152 Y110.243
G1 F1350 X113.753 Y118.844 E44.82257
G0 F15000 X113.187 Y118.844
G1 F1350 X105.152 Y110.809 E44.95117
G0 F15000 X105.152 Y111.374
G1 F1350 X112.622 Y118.844 E45.07073
G0 F15000 X112.056 Y118.844
G1 F1350 X105.152 Y111.94 E45.18124
G0 F15000 X105.152 Y112.506
G1 F1350 X111.49 Y118.844 E45.28268
G0 F15000 X110.925 Y118.844
G1 F1350 X105.152 Y113.071 E45.37508
G0 F15000 X105.152 Y113.637
G1 F1350 X110.359 Y118.844 E45.45842
G0 F15000 X109.793 Y118.844
G1 F1350 X105.152 Y114.203 E45.5327
G0 F15000 X105.152 Y114.768
G1 F1350 X109.227 Y118.844 E45.59793
G0 F15000 X108.662 Y118.844
G1 F1350 X105.152 Y115.334 E45.65411
G0 F15000 X105.152 Y115.9
G1 F1350 X108.096 Y118.844 E45.70123
G0 F15000 X107.53 Y118.844
G1 F1350 X105.152 Y116.465 E45.7393
G0 F15000 X105.152 Y117.031
G1 F1350 X106.965 Y118.844 E45.76832
G0 F15000 X106.399 Y118.844
G1 F1350 X105.152 Y117.597 E45.78828
G0 F15000 X105.152 Y118.162
G1 F1350 X105.833 Y118.844 E45.79919
G0 F15000 X105.268 Y118.844
G1 F1350 X105.152 Y118.728 E45.80105
M204 S429
G1 F1500 E39.30105
;MESH:NONMESH
